X:1
T:The Marchioness of Cornwallis
T:The Marchioness of Cornwallis
T:William Marshall
C:William Marshall
L:1/8
Q:1/8=128
M:4/4
K:Eb
V:1 treble 
V:1
|: B,/A,/ | G,<B, B,>C E2 G,E | B,>E BE GF FB,/A,/ | G,<B,-B,C/D/ E2 Ee | c>B AB GE EB,/A,/ | %5
 G,<B, B,>C E2 G,E | B,>E BE GF FB,/A,/ | G,<B,-B,C/D/ E2 Ee | c>B AB GE Ec/d/ | %9
 e/d/c/B/ eB cB eB | fB a>g gf fg | a>g fe ed cB | e>c BB, CE Ec/d/ | eE cE BE GE | %14
 a>f g>e df f>B, | C<E D<F E<B G<e | c>B AB GEE :| %17

